X:1
T:Abjice spinam Animae
T:Daniel Friderici
T:Source : Bicinia sacra---Rostock---J.Richelius---1642. Editor : André Vierendeels (04/07/17).
T:Notes : Original clefs : G2, G2 Original note values have been quartered in 3-beat measures Editorial accidentals above the staff  
T:Abjice spinam Animae
T:©
T:©
T:©
C:Daniel Friderici
Z:©
%%score [ 1 2 ]
L:1/8
Q:1/4=120
M:2/2
K:C
V:1 treble nm="Soprano 1" snm="S 1"
V:2 treble nm="Soprano 2" snm="S 2"
V:1
 cc G2 z4 | dd A2 z4 | ee c2 z4 | gg e2 z4 |[M:6/4] a3 a g2 f4 e2 | d3 d d2 c3 c B2 | %6
w: Ab- ji- ce,|ab- ji- ce,|ab- ji- ce,|ab- ji- ce,|ab- ji- ce spi- nam|A- ni- mae, ab- ji- ce|
 e4 d2 c3 c B2 |[M:2/2] z2 G2 cdef | gefg agfe | defe dcBA | G4 G2 A2- | AB c4 B2 | c2 g2 efgf | %13
w: spi- nam A- ni- mae,|doc- tri- * * *|||* nae- col-|* li- ge Se-|men, doc- tri- * * *|
 ecde fgag | fede fedc | B4 B2 e2- | ed c2 B4 | c8 :: ABcc z4 | Bcdd z4 | cdee z4 | deff z4 | %22
w: ||* nae col-|* li- ge Se-|men:|Spi- na ne- cem,|spi- na ne- cem,|spi- na ne- cem,|spi- na ne- cem,|
 efgg z4 | fgaa z4 | z2 f4 e2 | d8 | c8 | z8 | g4 e4 | z8 | cdef g2 e2 | agag fefe | dcde f4 | %33
w: spi- na ne- cem,|spi- na ne- cem,|spi- na|ne-|cem,||vi- tam||vi- * * * * tam,|vi- * * * * * * *||
 e2 g3 f e2 | afge fdec | d2 e2 d4 | c2 e3 d c2 | fdec dBcG | A2 A2 BA B2 | c8 :| %40
w: tam no- bi- le|Se- * * * * * * *|* men ha-|bet, no- bi- le|Se- * * * * * * *|* men ha- * *|bet.|
V:2
 z4 cc G2 | z4 dd A2 | z4 ee c2 | z4 gg e2 |[M:6/4] f3 f e2 d4 c2 | B3 B B2 e3 e d2 | %6
w: Ab- ji- ce,|ab- ji- ce,|ab- ji- ce,|ab- ji- ce,|ab- ji- ce spi- nam|A- ni- mae, ab- ji- ce|
 c4 B2 A3 A G2 |[M:2/2] z2 g2 efgf | ecde fgag | fede fedc | B4 B2 e2- | ed c2 d4 | c2 G2 cdef | %13
w: spi- nam A- ni- mae,|doc- tri- * * *|||* nae col-|* li- ge Se-|men, doc- tri- * * *|
 gefg agfe | defe dcBA | G4 G2 A2- | AB c2 d4 | e8 :: z4 ABcc | z4 Bcdd | z4 cdee | z4 deff | %22
w: ||* nae col-|* li- ge Se-|men:|Spi- na ne- cem,|spi- na ne- cem,|spi- na ne- cem,|spi- na ne- cem,|
 z4 efgg | z4 fgaa | z2 a4 g2 | f8 | e8 | g4 e4 | z8 | cdef g2 e2 | z8 | fefg agag | fefg a4 | %33
w: spi- na ne- cem,|spi- na ne- cem,|spi- na|ne-|cem,|vi- tam||vi- * * * * tam,||vi- * * * * * * *||
 g2 e3 f g2 | fdec dBcA | B2 c4 B2 | c2 c3 d e2 | dBcA BGAB | c2 e2 d4 | c8 :| %40
w: tam no- bi- le|Se- * * * * * * *|* men ha-|bet, no- bi- le|Se- * * * * * * *|* men ha-|bet.|

